!!!OTL: 628. Drohende Bitte.
!!!ARE: Europa, Mitteleuropa, Deutschland, Thueringen
!!!SCT: E0628
!!!TXL: @@DE
!!!YEM: Copyright 1995, estate of Helmut Schaffrath.
**kern	**text
*ICvox	*
*M6/8	*
*k[f#]	*
*G:	*
!LO:TX:a:t=Gemächlich.	!
!LO:TX:a:t=Mel. vor 1800.	!
{8d	Ach
=1	=1
8.b/	Mäd-
16a	-chen
8g	nur
8gL	ei-
8f#J	.
8g	-nen
=2	=2
[4.a	Blick,
8a]	.
8r}	.
{8d	nur
=3	=3
8.cc	ei-
16b	-nen
8a	Druck
8aL	dei-
8ddJ	.
8cc	-ner
=4	=4
[4.b	Hand,
8b]	.
8r}	.
{8dd	das
=5	=5
8.dd	wä-
16cc	-re
8b	mir
8b/	himm-
8a	-li-
8g	-ſches
=6	=6
(4cc	Glück,
8ee	.
8ggL	.
8ff#J)}	.
{8ee	das
=7	=7
8.ddL	ich
16eeJ	.
8dd	noch
8cc	nie-
8b/	-mals
8a	em-
=8	=8
[4.g	-pfand.
8g]	.
8r}	.
==	==
!!!AGN: Liebes - Lied, Scherz - Lied
!!!ONB: ESAC (Essen Associative Code) Database: ERK2
!!!AMT: compound duple
!!!AIN: vox
!!!EED: Helmut Schaffrath
!!!EEV: 1.0
!!!GTL: Liebeslieder [Neuere (aus dem 18. bis 19. Jahrh.) - Liebeslust]
!!!URL-scan: https://rosdok.uni-rostock.de/mcrviewer/recordIdentifier/rosdok_ppn745177662/iview2/phys_0443.iview2?x=85.7828275940883&y=1630.6766456516925&scale=0.7029437510502773&rotation=0&layout=singlePageLayout
!!!ENC: Anna Maria Matuszewska
!!!EEV: 2024/12/12
*-	*-
